X:229
T: Sebastopollied (3-32), S. 104
N: P1004
O: Lothringen
S: PINCK, Louis: Verklingende Weisen, Bd3, Metz 1933]
R: historisches, Soldatenlied]
M: 3/8
L: 1/16
K: G
D2 | G3A2_B | A3_BA2 | G3FG2 | D4
D2 | G3A_B2 | d4A2 | c2_B2AA | G4z2
G3A_B2 | A3_BA2 | G3FG2 | D4
D2 | G3A_B2 | d3cA2 | c2_B2A2 | G4

